**kern	**kern	**kern	**kern
*staff3	*staff4	*staff1	*staff2
*clefF4	*clefF4	*clefG2	*clefG2
*k[f#c#]	*k[f#c#]	*k[f#c#]	*k[f#c#]
*M2/4	*M2/4	*M2/4	*M2/4
*D:	*D:	*D:	*D:
=-	=-	=-	=-
4r	[2AA	8c# 8e	2r
.	.	8r	.
(4G^	.	(4c# 4b	.
=317	=317	=317	=317
8F#)	2AA]	8d) 8a	2r
8r	.	8r	.
(4D	.	(4f# 4dd	.
=318	=318	=318	=318
8E)	[2AA	8g) 8cc#	2r
8r	.	8r	.
(4G	.	(4cc# 4bb-	.
=319	=319	=319	=319
8F#)	2AA]	8dd) 8aa	2r
8r	.	8r	.
(4D	.	(4ff# 4ddd	.
=320	=320	=320	=320
8E)	[2AA	8gg) 8ccc#	2r
8r	.	8r	.
*	*	*clefF4	*
(4G	.	(4B- 4c#	.
=321	=321	=321	=321
8F#)	8AA]	8A) 8d	2r
8r	8r	8r	.
4r;	4r	4r	.
=322	=322	=322	=322
2r	4AAA 4AA	(4D' 4F#' 4A'	2r
.	4AAA 4AA	4C#') 4E' 4G' 4A'	.
=323	=323	=323	=323
2r	2DD; 2AA;	2D; 2F#; 2A;	2r
=324:|!	=324:|!	=324:|!	=324:|!
*-	*-	*-	*-
